assets/address_history_screen_no_history_logo.svg

<svg fill="none" height="88" viewBox="0 0 97 88" width="97" xmlns="http://www.w3.org/2000/svg"><path d="m51.7256 0c-19.2784 0-35.7517 12.0989-41.93708 29.0896l-4.59768-8.2069c-.26323-.485-.66625-.8796-1.15667-1.1325-.49042-.2528-1.04558-.3523-1.59331-.2855-.45527.0515-.89044.2159-1.266.4784-.375564.2624-.679605.6146-.884509 1.0244-.2049032.4098-.3041761.8643-.28880203 1.3222.01537413.458.14490803.9048.37683703 1.2999l7.562424 13.4921c.34555.6229.91935 1.0875 1.60058 1.2959.68121.2084 1.41671.1443 2.05171-.1788l13.4491-6.8749c.3369-.1544.6391-.3754.8885-.6495.2494-.2742.4407-.5959.5626-.9459.122-.35.1719-.721.1468-1.0908-.0251-.3697-.1247-.7307-.2927-1.061-.1681-.3303-.4012-.6232-.6853-.8612s-.6134-.4161-.9681-.5236c-.3546-.1075-.7274-.1423-1.0958-.1021-.3684.0401-.725.1543-1.0482.3357l-7.3046 3.7384c5.6285-14.4109 19.8185-24.66395 36.4802-24.66395 21.6206 0 39.0582 17.22465 39.0582 38.49965 0 21.1018-17.1695 38.2219-38.5426 38.4997-.3615.005-.7185.0811-1.0506.2242-.332.1431-.6326.3502-.8845.6096-.252.2594-.4502.5659-.5836.902-.1333.3361-.199.6953-.1934 1.0568s.0824.7184.2261 1.0502.3514.6321.6112.8835c.2598.2515.5667.4492.903.5819.3363.1328.6956.198 1.0571.1917 24.2833-.3155 43.9572-19.9086 43.9572-43.9996 0-24.288-20.0047-43.9996-44.5581-43.9996zm.2577 19.2068c-.6835.0752-1.314.4036-1.7674.9206-.4533.517-.6965 1.185-.6817 1.8725v21.9997c-.0003.4125.0923.8198.2708 1.1917s.4384.6988.7604.9567l13.7499 10.9999c.2821.2257.6059.3936.953.4942.347.1006.7104.1317 1.0695.0918s.7069-.1501 1.0234-.3243c.3164-.1743.5955-.4093.8212-.6914s.3936-.606.4942-.953c.1006-.3471.1318-.7104.0919-1.0695s-.1502-.7069-.3244-1.0234c-.1743-.3165-.4092-.5955-.6914-.8213l-12.7186-10.1835v-20.6676c.0084-.3915-.0668-.7803-.2207-1.1404-.1539-.36-.383-.683-.6718-.9475-.2888-.2644-.6308-.4641-1.003-.5857s-.7661-.1623-1.1553-.1195z" fill="#fff"/></svg>

<svg width="97" height="88" viewBox="0 0 97 88" fill="none" xmlns="http://www.w3.org/2000/svg">
<g id="Group">
<path id="Vector" d="M51.7256 0C32.4472 0 15.9739 12.0989 9.78852 29.0896L5.19084 20.8827C4.92761 20.3977 4.52459 20.0031 4.03417 19.7502C3.54375 19.4974 2.98859 19.3979 2.44086 19.4647C1.98559 19.5162 1.55042 19.6806 1.17486 19.9431C0.799296 20.2055 0.495255 20.5577 0.290351 20.9675C0.0854478 21.3773 -0.0138251 21.8318 0.00154897 22.2897C0.0169231 22.7477 0.146457 23.1945 0.378386 23.5896L7.94081 37.0817C8.28636 37.7046 8.86016 38.1692 9.54139 38.3776C10.2226 38.586 10.9581 38.5219 11.5931 38.1988L25.0422 31.3239C25.3791 31.1695 25.6813 30.9485 25.9307 30.6744C26.1801 30.4002 26.3714 30.0785 26.4933 29.7285C26.6153 29.3785 26.6652 29.0075 26.6401 28.6377C26.615 28.268 26.5154 27.907 26.3474 27.5767C26.1793 27.2464 25.9462 26.9535 25.6621 26.7155C25.378 26.4775 25.0487 26.2994 24.694 26.1919C24.3394 26.0844 23.9666 26.0496 23.5982 26.0898C23.2298 26.1299 22.8732 26.2441 22.55 26.4255L15.2454 30.1639C20.8739 15.753 35.0639 5.49995 51.7256 5.49995C73.3462 5.49995 90.7838 22.7246 90.7838 43.9996C90.7838 65.1014 73.6143 82.2215 52.2412 82.4993C51.8797 82.5043 51.5227 82.5804 51.1906 82.7235C50.8586 82.8666 50.558 83.0737 50.3061 83.3331C50.0541 83.5925 49.8559 83.899 49.7225 84.2351C49.5892 84.5712 49.5235 84.9304 49.5291 85.2919C49.5347 85.6534 49.6115 86.0103 49.7552 86.3421C49.8989 86.6739 50.1066 86.9742 50.3664 87.2256C50.6262 87.4771 50.9331 87.6748 51.2694 87.8075C51.6057 87.9403 51.965 88.0055 52.3265 87.9992C76.6098 87.6837 96.2837 68.0906 96.2837 43.9996C96.2837 19.7116 76.279 0 51.7256 0ZM51.9833 19.2068C51.2998 19.282 50.6693 19.6104 50.2159 20.1274C49.7626 20.6444 49.5194 21.3124 49.5342 21.9999V43.9996C49.5339 44.4121 49.6265 44.8194 49.805 45.1913C49.9835 45.5632 50.2434 45.8901 50.5654 46.148L64.3153 57.1479C64.5974 57.3736 64.9212 57.5415 65.2683 57.6421C65.6153 57.7427 65.9787 57.7738 66.3378 57.7339C66.6969 57.694 67.0447 57.5838 67.3612 57.4096C67.6776 57.2353 67.9567 57.0003 68.1824 56.7182C68.4081 56.4361 68.576 56.1122 68.6766 55.7652C68.7772 55.4181 68.8084 55.0548 68.7685 54.6957C68.7286 54.3366 68.6183 53.9888 68.4441 53.6723C68.2698 53.3558 68.0349 53.0768 67.7527 52.851L55.0341 42.6675V21.9999C55.0425 21.6084 54.9673 21.2196 54.8134 20.8595C54.6595 20.4995 54.4304 20.1765 54.1416 19.912C53.8528 19.6476 53.5108 19.4479 53.1386 19.3263C52.7664 19.2047 52.3725 19.164 51.9833 19.2068Z" fill="white"/>
</g>
</svg>
